creative/fonts/piswpi.svg

<?xml version="1.0" encoding="UTF-8" standalone="no"?>
<svg width="500" height="900" version="1.1" id="svg5" sodipodi:docname="piswpi.svg" inkscape:version="1.4.3 (0d15f750, 2025-12-25)" xmlns:inkscape="http://www.inkscape.org/namespaces/inkscape" xmlns:sodipodi="http://sodipodi.sourceforge.net/DTD/sodipodi-0.dtd" xmlns="http://www.w3.org/2000/svg" xmlns:svg="http://www.w3.org/2000/svg">
    <defs id="defs5" />
    <sodipodi:namedview id="namedview5" pagecolor="#ffffff" bordercolor="#000000" borderopacity="0.25" inkscape:showpageshadow="2" inkscape:pageopacity="0.0" inkscape:pagecheckerboard="0" inkscape:deskcolor="#d1d1d1" inkscape:zoom="0.32908213" inkscape:cx="243.10041" inkscape:cy="449.73576" inkscape:window-width="1095" inkscape:window-height="723" inkscape:window-x="0" inkscape:window-y="25" inkscape:window-maximized="0" inkscape:current-layer="svg5" />
    <path id="path5" d="m 90.900391,290.90039 c -9.763195,9.76312 -9.763195,25.59235 0,35.35547 L 373.74414,609.09961 c 9.76312,9.76319 25.59235,9.76319 35.35547,0 9.76319,-9.76312 9.76319,-25.59235 0,-35.35547 L 126.25586,290.90039 c -9.98917,-9.98944 -25.87017,-9.48569 -35.355469,0 z m 282.843749,0 -282.843749,282.84375 c -9.76319,9.76312 -9.76319,25.59235 0,35.35547 9.763119,9.76319 25.592349,9.76319 35.355469,0 L 409.09961,326.25586 c 9.76319,-9.76312 9.76319,-25.59235 0,-35.35547 -9.46114,-9.46152 -25.36444,-9.99129 -35.35547,0 z M 50,425 a 25,25 0 0 0 -25,25 25,25 0 0 0 25,25 h 400 a 25,25 0 0 0 25,-25 25,25 0 0 0 -25,-25 z M 250,200 a 50,50 0 0 0 -50,50 50,50 0 0 0 50,50 50,50 0 0 0 50,-50 50,50 0 0 0 -50,-50 z m -141.42188,58.57812 a 50,50 0 0 0 -49.999995,50 50,50 0 0 0 49.999995,50 50,50 0 0 0 50,-50 50,50 0 0 0 -50,-50 z m 282.84376,0 a 50,50 0 0 0 -50,50 50,50 0 0 0 50,50 50,50 0 0 0 50,-50 50,50 0 0 0 -50,-50 z M 50,400 a 50,50 0 0 0 -50,50 50,50 0 0 0 50,50 50,50 0 0 0 50,-50 50,50 0 0 0 -50,-50 z m 400,0 a 50,50 0 0 0 -50,50 50,50 0 0 0 50,50 50,50 0 0 0 50,-50 50,50 0 0 0 -50,-50 z M 108.57812,541.42188 a 50,50 0 0 0 -49.999995,50 50,50 0 0 0 49.999995,50 50,50 0 0 0 50,-50 50,50 0 0 0 -50,-50 z m 282.84376,0 a 50,50 0 0 0 -50,50 50,50 0 0 0 50,50 50,50 0 0 0 50,-50 50,50 0 0 0 -50,-50 z M 250,600 a 50,50 0 0 0 -50,50 50,50 0 0 0 50,50 50,50 0 0 0 50,-50 50,50 0 0 0 -50,-50 z m 0,-275 a 25,25 0 0 0 -25,25 25,25 0 0 0 25,25 25,25 0 0 0 25,-25 25,25 0 0 0 -25,-25 z m -70.71094,29.28906 a 25,25 0 0 0 -25,25 25,25 0 0 0 25,25 25,25 0 0 0 25,-25 25,25 0 0 0 -25,-25 z m 141.42188,0 a 25,25 0 0 0 -25,25 25,25 0 0 0 25,25 25,25 0 0 0 25,-25 25,25 0 0 0 -25,-25 z M 150,425 a 25,25 0 0 0 -25,25 25,25 0 0 0 25,25 25,25 0 0 0 25,-25 25,25 0 0 0 -25,-25 z m 200,0 a 25,25 0 0 0 -25,25 25,25 0 0 0 25,25 25,25 0 0 0 25,-25 25,25 0 0 0 -25,-25 z m -170.71094,70.71094 a 25,25 0 0 0 -25,25 25,25 0 0 0 25,25 25,25 0 0 0 25,-25 25,25 0 0 0 -25,-25 z m 141.42188,0 a 25,25 0 0 0 -25,25 25,25 0 0 0 25,25 25,25 0 0 0 25,-25 25,25 0 0 0 -25,-25 z M 250,525 a 25,25 0 0 0 -25,25 25,25 0 0 0 25,25 25,25 0 0 0 25,-25 25,25 0 0 0 -25,-25 z" style="stroke:#ff0000;fill:none" />
</svg>

<svg width="500" height="900" xmlns="http://www.w3.org/2000/svg">
    <path
        d="M 250 325 A 25 25 0 0 0 225 350 A 25 25 0 0 0 250 375 A 25 25 0 0 0 275 350 A 25 25 0 0 0 250 325 z M 179.28906 354.28906 A 25 25 0 0 0 154.28906 379.28906 A 25 25 0 0 0 179.28906 404.28906 A 25 25 0 0 0 204.28906 379.28906 A 25 25 0 0 0 179.28906 354.28906 z M 320.71094 354.28906 A 25 25 0 0 0 295.71094 379.28906 A 25 25 0 0 0 320.71094 404.28906 A 25 25 0 0 0 345.71094 379.28906 A 25 25 0 0 0 320.71094 354.28906 z M 150 425 A 25 25 0 0 0 125 450 A 25 25 0 0 0 150 475 A 25 25 0 0 0 175 450 A 25 25 0 0 0 150 425 z M 350 425 A 25 25 0 0 0 325 450 A 25 25 0 0 0 350 475 A 25 25 0 0 0 375 450 A 25 25 0 0 0 350 425 z M 179.28906 495.71094 A 25 25 0 0 0 154.28906 520.71094 A 25 25 0 0 0 179.28906 545.71094 A 25 25 0 0 0 204.28906 520.71094 A 25 25 0 0 0 179.28906 495.71094 z M 320.71094 495.71094 A 25 25 0 0 0 295.71094 520.71094 A 25 25 0 0 0 320.71094 545.71094 A 25 25 0 0 0 345.71094 520.71094 A 25 25 0 0 0 320.71094 495.71094 z M 250 525 A 25 25 0 0 0 225 550 A 25 25 0 0 0 250 575 A 25 25 0 0 0 275 550 A 25 25 0 0 0 250 525 z " />
    <path
        d="M 250 200 A 50 50 0 0 0 200 250 A 50 50 0 0 0 250 300 A 50 50 0 0 0 300 250 A 50 50 0 0 0 250 200 z M 108.57812 258.57812 A 50 50 0 0 0 58.578125 308.57812 A 50 50 0 0 0 108.57812 358.57812 A 50 50 0 0 0 158.57812 308.57812 A 50 50 0 0 0 108.57812 258.57812 z M 391.42188 258.57812 A 50 50 0 0 0 341.42188 308.57812 A 50 50 0 0 0 391.42188 358.57812 A 50 50 0 0 0 441.42188 308.57812 A 50 50 0 0 0 391.42188 258.57812 z M 50 400 A 50 50 0 0 0 0 450 A 50 50 0 0 0 50 500 A 50 50 0 0 0 100 450 A 50 50 0 0 0 50 400 z M 450 400 A 50 50 0 0 0 400 450 A 50 50 0 0 0 450 500 A 50 50 0 0 0 500 450 A 50 50 0 0 0 450 400 z M 108.57812 541.42188 A 50 50 0 0 0 58.578125 591.42188 A 50 50 0 0 0 108.57812 641.42188 A 50 50 0 0 0 158.57812 591.42188 A 50 50 0 0 0 108.57812 541.42188 z M 391.42188 541.42188 A 50 50 0 0 0 341.42188 591.42188 A 50 50 0 0 0 391.42188 641.42188 A 50 50 0 0 0 441.42188 591.42188 A 50 50 0 0 0 391.42188 541.42188 z M 250 600 A 50 50 0 0 0 200 650 A 50 50 0 0 0 250 700 A 50 50 0 0 0 300 650 A 50 50 0 0 0 250 600 z " />
    <path
        d="M 50 425 A 25 25 0 0 0 25 450 A 25 25 0 0 0 50 475 L 450 475 A 25 25 0 0 0 475 450 A 25 25 0 0 0 450 425 L 50 425 z " />
    <path
        d="M 373.74414,290.90039 90.900391,573.74414 c -9.76319,9.76312 -9.76319,25.59235 0,35.35547 9.763119,9.76319 25.592349,9.76319 35.355469,0 L 409.09961,326.25586 c 9.76319,-9.76312 9.76319,-25.59235 0,-35.35547 -9.46114,-9.46152 -25.36444,-9.99129 -35.35547,0 z" />
    <path
        d="m 90.900391,290.90039 c -9.763195,9.76312 -9.763195,25.59235 0,35.35547 L 373.74414,609.09961 c 9.76312,9.76319 25.59235,9.76319 35.35547,0 9.76319,-9.76312 9.76319,-25.59235 0,-35.35547 L 126.25586,290.90039 c -9.98917,-9.98944 -25.87017,-9.48569 -35.355469,0 z" />
</svg>
